X:77
T:The Swallowtail Jig
R:Jig
M:6/8
L:1/8
K:D
|:E/F/|"Em" GEE BEE|GEG BAG|"D"FDD ADD|dcd "Bm"(A2G/F/)|!
"Em"GEE BEE|GEG B2c|"D"dcd "Bm"AGF|"Em"GEE E2:|!
|:B|"Em"Bcd e2 .f|e2 f edB|Bcd e2 f|edB"D" d2 z|!
"Em"Bcd e2 .f|e2 f edB|"D"dcd "Bm"AGF|"Em"GEE E2:|

